X: 568
T:Lad O'Beirne's
R:reel
S:tape of unknown fiddler, from Co. Longford accordion player Mike
S:Berry.
N:Posted to the woodenflute mailing list, August 2002
Z:lesl
M:4/4
L:1/8
K:G
|: DG~G2 DGBG | AcBG AGEG | DG~G2 DGBd | egdg edge |
dB~B2 AGEG|cE~E2 GEDB | DEGA BABc | 1 dBAc BGG2 :|2 dBAc BGGA||
|: Bdd^c d2Bd | egdg edge | dB~B2 AGEG | cE~E2 GED2|
Bdd^c d2ef | g2fa gedB | DEGA BABc | dBAc BGG2 :||

